X: 13273
T: Five Miles Away
R: reel
M: 4/4
K: Dmajor
d2dB ABAF|d2AF Agfe|dedF ABAF|GFEF GABc|
d2dB ABAF|d2AF Agfe|dedF ABAF|GBAG FDDg||
fdAd fdad|fdAd ceeg|fdAd fdad|bage fddg|
fdAd fdad|fdAd ceeg|fage fdec|dABG FDD2||

